UI/Core-UI/SVG/help_outline_24px.svg

<svg width="24" height="24" viewBox="0 0 24 24" fill="none" xmlns="http://www.w3.org/2000/svg">
<path d="M11 18H13V16H11V18ZM15.05 7.5C14.7526 7.19847 14.3948 6.96331 14 6.81C13.4794 6.61474 12.9257 6.52302 12.37 6.54C11.9651 6.53686 11.5616 6.58729 11.17 6.69C10.5156 6.84515 9.90188 7.13837 9.37 7.55C9.16356 7.71549 8.97276 7.8996 8.8 8.1L9.8 9.39C10.1316 9.07006 10.5133 8.80657 10.93 8.61C11.3414 8.41074 11.7929 8.30813 12.25 8.31C12.6177 8.29389 12.977 8.42322 13.25 8.67C13.3595 8.77458 13.4467 8.90028 13.5062 9.0395C13.5658 9.17872 13.5965 9.32857 13.5965 9.48C13.5965 9.63142 13.5658 9.78128 13.5062 9.9205C13.4467 10.0597 13.3595 10.1854 13.25 10.29C13.01 10.52 12.78 10.74 12.54 10.93C12.3026 11.1245 12.0756 11.3315 11.86 11.55C11.6679 11.7434 11.503 11.9621 11.37 12.2C11.2359 12.4491 11.1351 12.7147 11.07 12.99C10.9975 13.3182 10.964 13.6539 10.97 13.99H12.97C12.9678 13.7391 13.0049 13.4894 13.08 13.25C13.1557 13.0482 13.2565 12.8567 13.38 12.68C13.5045 12.5223 13.6453 12.3782 13.8 12.25C13.9543 12.1212 14.1181 12.0042 14.29 11.9C14.46 11.77 14.63 11.63 14.81 11.47C14.9854 11.2971 15.1459 11.1097 15.29 10.91C15.4345 10.7023 15.5521 10.4772 15.64 10.24C15.7285 9.99303 15.7725 9.73233 15.77 9.47C15.7688 9.12958 15.7114 8.79169 15.6 8.47C15.4927 8.10911 15.3046 7.77739 15.05 7.5ZM12 2C10.0222 2 8.08879 2.58649 6.4443 3.6853C4.79981 4.78412 3.51809 6.3459 2.76121 8.17317C2.00433 10.0004 1.8063 12.0111 2.19215 13.9509C2.578 15.8907 3.53041 17.6725 4.92894 19.0711C6.32746 20.4696 8.10929 21.422 10.0491 21.8079C11.9889 22.1937 13.9996 21.9957 15.8268 21.2388C17.6541 20.4819 19.2159 19.2002 20.3147 17.5557C21.4135 15.9112 22 13.9778 22 12C22 10.6868 21.7413 9.38642 21.2388 8.17317C20.7363 6.95991 19.9997 5.85752 19.0711 4.92893C18.1425 4.00035 17.0401 3.26375 15.8268 2.7612C14.6136 2.25866 13.3132 2 12 2ZM12 20C10.4178 20 8.87104 19.5308 7.55544 18.6518C6.23985 17.7727 5.21447 16.5233 4.60897 15.0615C4.00347 13.5997 3.84504 11.9911 4.15372 10.4393C4.4624 8.88743 5.22433 7.46197 6.34315 6.34315C7.46197 5.22433 8.88743 4.4624 10.4393 4.15372C11.9911 3.84504 13.5997 4.00346 15.0615 4.60896C16.5233 5.21447 17.7727 6.23984 18.6518 7.55544C19.5308 8.87103 20 10.4177 20 12C20 14.1217 19.1572 16.1566 17.6569 17.6569C16.1566 19.1571 14.1217 20 12 20Z" fill="#0F1621"/>
</svg>

<svg xmlns="http://www.w3.org/2000/svg" width="24" height="24" viewBox="0 0 24 24"><rect width="24" height="24" style="fill:none"/><path d="M11,18h2V16H11ZM15.05,7.5A3,3,0,0,0,14,6.81a4.27,4.27,0,0,0-1.63-.27,4.59,4.59,0,0,0-1.2.15,4.72,4.72,0,0,0-1.8.86,4.32,4.32,0,0,0-.57.55l1,1.29a4.22,4.22,0,0,1,1.13-.78,3,3,0,0,1,1.32-.3,1.4,1.4,0,0,1,1,.36,1.12,1.12,0,0,1,0,1.62c-.24.23-.47.45-.71.64a8.7,8.7,0,0,0-.68.62,3,3,0,0,0-.49.65,3.24,3.24,0,0,0-.3.79,4.28,4.28,0,0,0-.1,1h2a2.4,2.4,0,0,1,.11-.74,2.57,2.57,0,0,1,.3-.57,2.86,2.86,0,0,1,.42-.43,4,4,0,0,1,.49-.35c.17-.13.34-.27.52-.43a4.41,4.41,0,0,0,.48-.56,3,3,0,0,0,.35-.67,2.22,2.22,0,0,0,.13-.77,3.09,3.09,0,0,0-.17-1A2.48,2.48,0,0,0,15.05,7.5ZM12,2A10,10,0,1,0,22,12,10,10,0,0,0,12,2Zm0,18a8,8,0,1,1,8-8A8,8,0,0,1,12,20Z"/></svg>
